public/images/company/quotes.svg

<svg width="124" height="109" viewBox="0 0 124 109" fill="none" xmlns="http://www.w3.org/2000/svg">
<path d="M95.1253 108.695C84.8629 108.033 77.5799 104.226 73.2763 97.2742C68.9727 90.3223 66.8209 82.5427 66.8209 73.9356C66.8209 63.0111 68.8072 52.7487 72.7798 43.1483C77.0834 33.217 82.7111 24.6098 89.6631 17.3268C96.615 9.71279 104.395 4.25053 113.002 0.940063L123.43 15.3406C119.126 17.9889 114.988 21.6304 111.015 26.265C107.043 30.5686 103.401 35.3688 100.091 40.6655C97.1116 45.9622 95.1253 51.59 94.1322 57.5488C99.0979 57.5488 103.567 58.542 107.54 60.5282C111.843 62.1834 115.154 64.8318 117.471 68.4733C120.119 72.1148 121.443 76.915 121.443 82.8738C121.443 90.8189 118.961 97.1087 113.995 101.743C109.029 106.378 102.739 108.695 95.1253 108.695Z" fill="white" fill-opacity="0.1"/>
<path d="M6.45404 98.0155C10.7576 104.967 18.2061 108.609 28.7996 108.94C35.7515 108.94 41.7104 106.623 46.676 101.988C51.9728 97.3534 54.6211 91.0635 54.6211 83.1184C54.6211 77.1596 53.297 72.3594 50.6486 68.718C48.3313 65.0764 45.0208 62.4281 40.7172 60.7728C36.7447 58.7866 32.2756 57.7934 27.3099 57.7934C28.303 51.8346 30.2893 46.2069 33.2687 40.9102C36.5792 35.6134 40.2207 30.8132 44.1932 26.5097C48.1658 21.875 52.3038 18.2335 56.6074 15.5852L46.1795 1.18469C37.5723 4.49516 29.7928 9.95742 22.8408 17.5715C15.8888 24.8544 10.2611 33.4616 5.95749 43.393C1.98494 52.9933 -0.00133115 63.2557 -0.00133592 74.1802C-0.00133667 82.7874 2.15045 90.7325 6.45404 98.0155Z" fill="white" fill-opacity="0.1"/>
</svg>

<svg xmlns="http://www.w3.org/2000/svg" width="124" height="109" fill="none"><path fill="#fff" fill-opacity=".1" d="M95.125 108.695q-15.393-.993-21.849-11.42-6.455-10.429-6.455-23.34 0-16.386 5.959-30.787 6.455-14.896 16.883-25.821Q100.091 5.907 113.002.94l10.428 14.4q-6.456 3.973-12.415 10.925-5.959 6.456-10.924 14.4a51.4 51.4 0 0 0-5.959 16.884q7.449 0 13.408 2.98 6.455 2.482 9.931 7.944 3.972 5.463 3.972 14.4 0 11.919-7.448 18.87t-18.87 6.952M6.454 98.016Q12.91 108.443 28.8 108.94q10.427 0 17.876-6.952 7.945-6.952 7.945-18.87 0-8.938-3.972-14.4-3.477-5.463-9.932-7.945-5.958-2.98-13.407-2.98a51.4 51.4 0 0 1 5.959-16.883q4.966-7.945 10.924-14.4 5.959-6.953 12.414-10.925L46.18 1.185Q33.27 6.15 22.841 17.572 12.413 28.496 5.957 43.393 0 57.793 0 74.18q0 12.91 6.455 23.835"/></svg>
